X: 83
T: WALTZES: Rainbow Set
T: Flatworld
C: C: Andy Cutting / Calum Stewart; S: Various
C: Set Leaders: Olya, Tania, Anton, Oliushka
Z: Anton Zille ed., Oleg Naumov arr.; Mario / Bregolas at The Session
N: https://thesession.org/members/26966/sets/92070
R: Waltz
M: 3/4
L: 1/8
Q: 1/4=144
K: Bmin
|:f ef|"Bm"df cf Bf|"G"G2 Bc dB|"Em"g2 gf ed|"F#m"c3 f ef|
"Bm"df cf Bf|"G"G2 gf ed|"A"cB ce dc|1 "Bm"B3:|2 "Bm"B6||
"Bm"Bc dB ba|"G"g2 gf ed|"A"cd ec ag|"F#m"f2 fe dc|
"G"Bc dB gf|"Em"e2 ed cB|"F#m"c2 ce ^de|"F#m"c4 dc|
"Bm"Bc dB ba|"G"g2 gf ed|"A"cd ec ag|"F#m"f2 fe dc|
"G"Bc dB gf|"Em"e2 ed cB|"A"cB ce dc| "Bm"B3||
T: Looking at a Rainbow / Looking at a Rainbow Through a Dirty Window
K: Gmaj
D GA|:"G"Bd AB GA|"D"F2 FG FD|"C"E6-|"D"E3 DGA|
"G (Em)"Bd AB GA|"D"F2 FG FD|"C"G6-|1 "G"G3 DGA:|2 "D"GA Bd gf||
|:"Em"e2 B2 gf|"C"e2 c2 gf|"D"ed ef ga|"G"b2 ba "D/F#"gf|
"Em"e2 B2 gf|"C"e2 c2 gf|"D"ed ef ga|1 "G"g4 "D/F#"gf:|2 "C"g3||

